icons/github.svg

<?xml version="1.0" encoding="UTF-8" standalone="no"?><!DOCTYPE svg PUBLIC "-//W3C//DTD SVG 1.1//EN" "http://www.w3.org/Graphics/SVG/1.1/DTD/svg11.dtd"><svg width="100%" height="100%" viewBox="0 0 569 569" version="1.1" xmlns="http://www.w3.org/2000/svg" xmlns:xlink="http://www.w3.org/1999/xlink" xml:space="preserve" style="fill-rule:evenodd;clip-rule:evenodd;stroke-linejoin:round;stroke-miterlimit:1.41421;"><path d="M550.99,0l-533.939,0c-8.103,0 -14.67,6.567 -14.67,14.67l0,538.694c0,8.104 6.567,14.67 14.67,14.67l177.498,0l0,-0.129c8.011,-0.092 14.149,-4.577 14.431,-12.166c0.728,-19.725 0.214,-39.492 0.214,-58.562c-14.296,0.667 -27.944,2.473 -41.438,1.695c-29.762,-1.714 -52.632,-14.413 -64.493,-43.556c-7.026,-17.265 -17.613,-32.032 -34.101,-41.886c-3.079,-1.842 -5.771,-4.554 -8.127,-7.308c-3.079,-3.592 -2.503,-7.282 2.362,-8.268c4.908,-0.998 10.27,-1.695 15.11,-0.79c19.009,3.568 32.154,15.49 42.216,31.347c19.896,31.371 50.521,40.974 84.976,26.487c1.921,-0.808 4.363,-2.766 4.725,-4.553c2.778,-13.887 7.968,-26.549 18.427,-37.65c-11.628,-2.154 -22.399,-3.739 -32.962,-6.188c-30.417,-7.038 -57.742,-19.7 -77.724,-44.848c-16.303,-20.514 -23.758,-44.528 -27.185,-70.086c-5.367,-40.031 -0.563,-77.503 26.928,-109.493c1.389,-1.616 2.142,-4.927 1.524,-6.94c-6.885,-22.497 -5.833,-44.805 0.991,-67.051c3.581,-11.683 4.578,-12.265 16.5,-10.637c0.729,0.098 1.438,0.281 2.161,0.404c23.898,3.954 44.468,15.526 64.731,27.95c2.724,1.671 6.873,2.711 9.866,1.983c48.397,-11.744 96.702,-11.695 145.093,0.043c2.809,0.679 6.561,-0.288 9.247,-1.695c11.016,-5.759 21.561,-12.454 32.718,-17.914c12.98,-6.346 26.652,-11.12 41.371,-10.857c2.576,0.049 6.561,2.509 7.423,4.786c8.856,23.464 10.723,47.375 3.666,71.794c-0.753,2.607 0.367,6.322 1.769,8.892c6.965,12.779 16.689,24.572 21.096,38.127c13.434,41.316 8.538,82.229 -9.749,121.06c-16.757,35.594 -47.834,53.63 -84.621,62.933c-12.424,3.14 -25.153,5.049 -38.556,7.681c17.564,18.348 20.318,40.74 20.006,64.192c-0.324,24.192 -0.238,48.391 -0.251,72.589c-0.006,11.72 5.11,18.195 14.039,18.574c-0.006,0.037 188.723,0.037 188.723,0.037l0,-553.361c-0.002,-8.103 -6.568,-14.67 -14.665,-14.67Z" style="fill:#080808;fill-rule:nonzero;"/></svg>

<?xml version="1.0" encoding="UTF-8" standalone="no"?>
<!DOCTYPE svg PUBLIC "-//W3C//DTD SVG 1.1//EN" "http://www.w3.org/Graphics/SVG/1.1/DTD/svg11.dtd">
<svg width="100%" height="100%" viewBox="0 0 491 491" version="1.1" xmlns="http://www.w3.org/2000/svg" xmlns:xlink="http://www.w3.org/1999/xlink" xml:space="preserve" style="fill-rule:evenodd;clip-rule:evenodd;stroke-linecap:round;stroke-linejoin:round;stroke-miterlimit:1.5;">
    <g transform="matrix(1,0,0,1,-1019.02,0)">
        <g id="Artboard3" transform="matrix(1,0,0,1,193.695,-6.67826)">
            <rect x="825.322" y="6.678" width="490.017" height="490.017" style="fill:white;"/>
            <clipPath id="_clip1">
                <rect x="825.322" y="6.678" width="490.017" height="490.017"/>
            </clipPath>
            <g clip-path="url(#_clip1)">
                <g transform="matrix(10.5546,0,0,12.0573,-4271.47,-7198.79)">
                    <g transform="matrix(1.10361,0,0,0.989752,-49.756,-79.2837)">
                        <rect x="481.625" y="682.61" width="45.25" height="42.875"/>
                    </g>
                    <g transform="matrix(1,0,0,0.90243,0.712344,-17.5116)">
                        <rect x="486.875" y="686.485" width="38.75" height="36" style="fill:white;stroke:white;stroke-width:0.22px;"/>
                    </g>
                    <g transform="matrix(0.077564,0,0,0.0620616,484.653,599.234)">
                        <path d="M550.99,0L17.051,0C8.948,0 2.381,6.567 2.381,14.67L2.381,606.819C2.381,614.923 8.948,621.489 17.051,621.489L194.549,568.034L194.549,567.905C202.56,567.813 208.698,563.328 208.98,555.739C209.708,536.014 209.194,516.247 209.194,497.177C194.898,497.844 181.25,499.65 167.756,498.872C137.994,497.158 115.124,484.459 103.263,455.316C96.237,438.051 85.65,423.284 69.162,413.43C66.083,411.588 63.391,408.876 61.035,406.122C57.956,402.53 58.532,398.84 63.397,397.854C68.305,396.856 73.667,396.159 78.507,397.064C97.516,400.632 110.661,412.554 120.723,428.411C140.619,459.782 171.244,469.385 205.699,454.898C207.62,454.09 210.062,452.132 210.424,450.345C213.202,436.458 218.392,423.796 228.851,412.695C217.223,410.541 206.452,408.956 195.889,406.507C165.472,399.469 138.147,386.807 118.165,361.659C101.862,341.145 94.407,317.131 90.98,291.573C85.613,251.542 90.417,214.07 117.908,182.08C119.297,180.464 120.05,177.153 119.432,175.14C112.547,152.643 113.599,130.335 120.423,108.089C124.004,96.406 125.001,95.824 136.923,97.452C137.652,97.55 138.361,97.733 139.084,97.856C162.982,101.81 183.552,113.382 203.815,125.806C206.539,127.477 210.688,128.517 213.681,127.789C262.078,116.045 310.383,116.094 358.774,127.832C361.583,128.511 365.335,127.544 368.021,126.137C379.037,120.378 389.582,113.683 400.739,108.223C413.719,101.877 427.391,97.103 442.11,97.366C444.686,97.415 448.671,99.875 449.533,102.152C458.389,125.616 460.256,149.527 453.199,173.946C452.446,176.553 453.566,180.268 454.968,182.838C461.933,195.617 471.657,207.41 476.064,220.965C489.498,262.281 484.602,303.194 466.315,342.025C449.558,377.619 418.481,395.655 381.694,404.958C369.27,408.098 356.541,410.007 343.138,412.639C360.702,430.987 363.456,453.379 363.144,476.831C362.82,501.023 362.906,525.222 362.893,549.42C362.887,561.14 368.003,567.615 376.932,567.994C376.926,568.031 565.655,621.486 565.655,621.486L565.655,14.67C565.653,6.567 559.087,0 550.99,0L550.99,0Z" style="fill-rule:nonzero;"/>
                    </g>
                </g>
            </g>
        </g>
    </g>
</svg>
